X:107
T:Joyfull Sound,The. JMP.107
M:4/4
L:1/4
Q:122
S:John Miller MS. Perth, 1799.(for the fife)
R:.Hymn
O:Scotland
A:Perth
N:No key signature in MS..Three people have written the title at the top
N:of the page
N:Two of them spell it â€˜Joyfulâ€™
N:1 â€“ End of line â€“ photocopy very dark
N:Salvation Oh! the joyfull sound what pleasure to our ears
N:Balm for every wound a cordial for our fears
N:Glory Honour and power, be unto the Lamb for ever
N:he alone is our Redeemer.
N:Hallelujah x 3 praise the Lord
H:1799
Z:vmp.C. Graebe
K:G major
â€œSee notes for wordsâ€D | GFG (A/B/4c/4) | BAB (c/B/) |\
A (B/c/4d/4) A/G/ F/E/ | D2 A/B/ (A/G/) |\
â€œ1â€GFG (A/d/) |!
(c/B/) (A/G/) (G/F/) E/D/ |\
d (c/B/) c (B/A/) | G2 GA BG â€œ1â€ cdB |\
e (d/c/) d (c/B/) | cBAG |!
c>BA>G |\
FGAD | dABA | dA (B/A/) G | cBe(d/c/) | B2A2 | G4 |]

